X:1
T:Belsize (Hyatt), 87.87.87 D
T:Belsize (Hyatt), 87.87.87 D
T:Bertha J. Hyatt, 1889
T:Public Domain Courtesy of the Cyber Hymnal™
C:Bertha J. Hyatt, 1889
Z:Public Domain
Z:Courtesy of the Cyber Hymnal™
%%score ( 1 2 ) ( 3 4 )
L:1/8
Q:1/4=105
M:4/4
K:D
V:1 treble 
V:2 treble 
V:3 bass 
V:4 bass 
V:1
 [A,D]2 [A,E][A,F] [CE]2 [A,D][A,D] | [DG]4 [DF]2 [GA]2 | [DA]2 [D^G][DA] [Ed]2 [Ec]2 | [DB]8 | %4
 [CB]2 [CE][CF] [CG]2 [CF][CE] | ([B,D]2 [DE]2) [DF]2 [DG]2 | [DF]2 [DA][DG] [DF]3 [CE] | [A,D]8 | %8
 [DE]2 [B,F][B,E] [EA]2 [^B,^G][B,F] | ([CE]2 [B,D]2) [A,C]3 [CE] | [CE]2 [EA][EB] [Ac]2 [AB]2 | %11
 [^GB]8 | [Ac]2 [EB][EA] [^EA]2 [E^G][EA] | [^E^G]4 F2 [FA]2 | [D^G]2 [DF][DE] [DB]3 [Dc] | [CA]8 | %16
 [A,D]2 [A,E][A,F] [CE]2 [A,D][A,D] | [DG]4 [DF]2 [GA]2 | [DA]2 [D^G][DA] [Ed]2 [Ec]2 | [DB]8 | %20
 [CB]2 [CE][CF] [CG]2 [CF][CE] | ([B,D]2 [DE]2) [DF]2 [DG]2 | [DF]2 [DA][DG] [DF]3 [CE] | [A,D]8 |] %24
V:2
 x8 | x8 | x8 | x8 | x8 | x8 | x8 | x8 | x8 | x8 | x8 | x8 | x8 | x4 F2 x2 | x8 | x8 | x8 | x8 | %18
 x8 | x8 | x8 | x8 | x8 | x8 |] %24
V:3
 [D,F,]2 [D,G,][D,A,] [D,G,]2 [D,F,][D,F,] | [D,B,]4 [D,A,]2 [E,C]2 | %2
 [F,A,]2 [F,A,][F,A,] [F,^A,]2 [F,A,]2 | [G,B,]8 | %4
 [A,,G,]2 [A,,G,][A,,F,] [A,,E,]2 [^A,,F,][A,,F,] | ([B,,F,]2 [G,B,]2) [F,B,]2 [E,B,]2 | %6
 [A,,A,]2 [A,,B,][A,,_B,] [A,,A,]3 [A,,G,] | [D,F,]8 | %8
 [E,^G,]2 [D,G,][D,G,] [C,A,]2 [^D,A,][D,A,] | (A,2 ^G,2) [A,,E,]3 [A,,A,] | %10
 [A,,A,]2 [A,C][A,D] [A,E]2 [B,^D]2 | [E,E]8 | [A,E]2 [A,D][A,C] [C,B,]2 [C,B,][C,B,] | %13
 [D,B,]4 [D,A,]2 [^D,B,]2 | [E,B,]2 [E,A,][E,^G,] [E,G,]3 [E,G,] | (A,4 G,4) | %16
 [D,F,]2 [D,G,][D,A,] [D,G,]2 [D,F,][D,F,] | [D,B,]4 [D,A,]2 [E,C]2 | %18
 [F,A,]2 [F,A,][F,A,] [F,^A,]2 [F,A,]2 | [G,B,]8 | %20
 [A,,G,]2 [A,,G,][A,,F,] [A,,E,]2 [^A,,F,][A,,F,] | ([B,,F,]2 [G,B,]2) [F,B,]2 [E,B,]2 | %22
 [A,,A,]2 [A,,B,][A,,_B,] [A,,A,]3 [A,,G,] | [D,F,]8 |] %24
V:4
 x8 | x8 | x8 | x8 | x8 | x8 | x8 | x8 | x8 | E,4 x4 | x8 | x8 | x8 | x8 | x8 | A,,8 | x8 | x8 | %18
 x8 | x8 | x8 | x8 | x8 | x8 |] %24

